ePapirus/24x24/actions/transform-browse.svg

<svg xmlns="http://www.w3.org/2000/svg" width="24" height="24" version="1.1">
 <defs>
  <style id="current-color-scheme" type="text/css">
   .ColorScheme-Text { color:#6e6e6e; } .ColorScheme-Highlight { color:#4285f4; }
  </style>
 </defs>
 <path style="fill:currentColor" class="ColorScheme-Text" d="m 15.449691,19.477978 c -1.380886,0.59027 -2.742785,0.68266 -3.88301,0.2634 -0.57257,-0.21053 -5.6486411,-2.348478 -6.0276341,-2.623718 -0.319191,-0.2318 -0.461946,-0.46416 -0.507321,-0.82574 -0.106188,-0.84621 0.651581,-1.4607 1.496548,-1.21358 0.8178429,0.299775 2.5530339,0.675448 2.5530339,0.675448 l -2.047076,-3.67404 C 5.1505178,8.6989182 4.9882278,8.3863282 5.0006008,8.1627582 c 0.02927,-0.5289697 0.422516,-0.9206097 0.94951,-0.9456397 0.507489,-0.0241 0.582091,0.0722 1.990983,2.5714996 1.185168,2.1023799 1.283883,2.2586599 1.449816,2.2952299 0.228191,0.0503 0.299024,0.005 0.34636,-0.21998 0.03442,-0.16378 -0.125001,-0.47213 -1.564669,-3.0264798 -1.542661,-2.7371597 -1.602727,-2.8551597 -1.596143,-3.1372597 0.01871,-0.80121 0.949385,-1.19082 1.580577,-0.66167 0.111754,0.0937 0.726555,1.12796 1.755931,2.95399 1.5263392,2.7075895 1.5898392,2.8096295 1.7453312,2.8044995 0.195464,-0.006 0.322406,-0.15218 0.315789,-0.36254 -0.0029,-0.0929 -0.582318,-1.1821999 -1.43581,-2.6994195 -1.0928872,-1.94278 -1.4316972,-2.59087 -1.4342272,-2.74347 -0.0053,-0.3188 0.199282,-0.65717 0.508092,-0.84041 0.4272562,-0.19739 0.8866742,-0.22169 1.0623362,0.0494 l 1.612906,2.86116 c 1.041207,1.8470097 1.661683,2.8921796 1.750524,2.9486895 0.153832,0.0979 0.410078,-0.0179 0.459734,-0.2077199 0.02378,-0.0909 -0.261569,-0.64551 -1.069045,-2.0778996 -1.223845,-2.171 -1.343286,-2.38483 -1.100139,-2.84099 0.547515,-0.64789 1.263519,-0.68226 1.611775,-0.19809 l 2.41864,4.3365896 c 0.715352,1.6581299 2.195823,3.1972099 2.542308,4.9689499 0.30439,1.55649 -0.09364,2.87315 -1.204837,3.98552 -0.478074,0.47858 -1.585836,1.21884 -2.246652,1.50131 z"/>
</svg>

<svg xmlns="http://www.w3.org/2000/svg" width="24" height="24" version="1.1">
 <defs>
  <style id="current-color-scheme" type="text/css">
   .ColorScheme-Text { color:#6e6e6e; } .ColorScheme-Highlight { color:#4285f4; }
  </style>
 </defs>
 <path style="fill:currentColor" class="ColorScheme-Text" d="M 15.45,19.478 C 14.069,20.068 12.707,20.161 11.567,19.741 10.994,19.531 5.918,17.393 5.539,17.118 5.2199,16.886 5.0771,16.653 5.0317,16.292 4.9255,15.446 5.6833,14.831 6.5283,15.078 7.3461,15.378 9.0813,15.754 9.0813,15.754 L 7.0342,12.08 C 5.1505,8.699 4.9882,8.386 5.0006,8.163 5.0299,7.634 5.4231,7.242 5.9501,7.217 6.4576,7.193 6.5322,7.289 7.9411,9.789 9.1263,11.891 9.225,12.047 9.3909,12.084 9.6191,12.134 9.6899,12.089 9.7373,11.864 9.7717,11.7 9.6123,11.392 8.1726,8.837 6.6299,6.1 6.5699,5.9822 6.5765,5.7001 6.5952,4.8989 7.5258,4.5093 8.157,5.0385 8.2688,5.1322 8.8836,6.166 9.913,7.992 11.439,10.7 11.503,10.802 11.658,10.797 11.854,10.791 11.981,10.645 11.974,10.434 11.971,10.341 11.392,9.252 10.538,7.735 9.4454,5.7922 9.1066,5.1441 9.104,4.9915 9.0987,4.6727 9.3033,4.3343 9.6121,4.1511 10.039,3.9537 10.499,3.9294 10.675,4.2005 L 12.287,7.062 C 13.329,8.909 13.949,9.954 14.038,10.01 14.192,10.108 14.448,9.992 14.498,9.803 14.521,9.712 14.236,9.157 13.429,7.725 12.205,5.5537 12.085,5.3399 12.329,4.8837 12.876,4.2359 13.592,4.2015 13.94,4.6857 L 16.359,9.022 C 17.074,10.68 18.555,12.219 18.901,13.991 19.206,15.548 18.808,16.864 17.696,17.977 17.218,18.455 16.111,19.196 15.45,19.478 Z"/>
</svg>
